dist/img/mail.svg

<svg width="23" height="17" viewBox="0 0 23 17" fill="none" xmlns="http://www.w3.org/2000/svg">
<path d="M19.6115 0H2.73165C1.22485 0 0 1.22485 0 2.73165V14.2684C0 15.7752 1.22485 17 2.73165 17H19.6069C21.1137 17 22.3385 15.7752 22.3385 14.2684V2.73627C22.3431 1.22947 21.1183 0 19.6115 0ZM21.0952 14.2684C21.0952 15.0865 20.4296 15.752 19.6115 15.752H2.73165C1.91354 15.752 1.24796 15.0865 1.24796 14.2684V2.73627C1.24796 1.91816 1.91354 1.25258 2.73165 1.25258H19.6069C20.425 1.25258 21.0905 1.91816 21.0905 2.73627V14.2684H21.0952Z" fill="#005FA3"/>
<path d="M14.088 8.35673L19.5513 3.45733C19.8055 3.22623 19.8287 2.83335 19.5975 2.57451C19.3664 2.3203 18.9736 2.29719 18.7147 2.52829L11.1807 9.29039L9.71093 7.97772C9.7063 7.9731 9.70168 7.96848 9.70168 7.96386C9.66933 7.9315 9.63697 7.90377 9.59999 7.87604L3.61903 2.52367C3.36019 2.29257 2.96731 2.31568 2.73621 2.57451C2.50511 2.83335 2.52822 3.22623 2.78705 3.45733L8.31506 8.39833L2.81016 13.552C2.56057 13.7877 2.54671 14.1806 2.78243 14.4348C2.90723 14.5642 3.07362 14.6335 3.24002 14.6335C3.39255 14.6335 3.54507 14.5781 3.66525 14.4671L9.25334 9.23955L10.7694 10.5938C10.8896 10.7001 11.0375 10.751 11.1854 10.751C11.3333 10.751 11.4858 10.6955 11.6014 10.5892L13.159 9.19333L18.7147 14.4717C18.8349 14.5873 18.9921 14.6428 19.1446 14.6428C19.311 14.6428 19.4728 14.5781 19.5975 14.4486C19.8333 14.199 19.824 13.8015 19.5744 13.5658L14.088 8.35673Z" fill="#005FA3"/>
</svg>

<svg width="23" height="17" viewBox="0 0 23 17" fill="none" xmlns="http://www.w3.org/2000/svg"><path d="M19.611 0H2.732A2.734 2.734 0 0 0 0 2.732v11.536A2.734 2.734 0 0 0 2.732 17h16.875a2.734 2.734 0 0 0 2.732-2.732V2.736A2.731 2.731 0 0 0 19.611 0zm1.484 14.268c0 .818-.665 1.484-1.483 1.484H2.732a1.485 1.485 0 0 1-1.484-1.484V2.736c0-.818.666-1.483 1.484-1.483h16.875c.818 0 1.483.665 1.483 1.483v11.532h.005z" fill="#005FA3"/><path d="M14.088 8.357l5.463-4.9a.627.627 0 0 0 .047-.882.627.627 0 0 0-.883-.047L11.18 9.29 9.71 7.978c-.005-.005-.01-.01-.01-.014a.923.923 0 0 0-.101-.088L3.619 2.524a.623.623 0 0 0-.883.05.623.623 0 0 0 .051.883l5.528 4.941-5.505 5.154a.626.626 0 0 0 .855.915L9.253 9.24l1.516 1.354a.624.624 0 0 0 .832-.005l1.558-1.396 5.556 5.279a.623.623 0 0 0 .86-.906l-5.487-5.21z" fill="#005FA3"/></svg>
